X: 36745
T: Sheik's Fancy, The
R: polka
M: 2/4
K: Dmixolydian
|:A>G FD|d>e fd|cA A/B/A/G/|EF G2|
A>G FD|d>e fd|cA GA/G/|FD D2:|
fd dA|d/e/f/g/ a>f|ge e>d|^c/d/e/f/ ge|
fd dA|d/e/f/g/ a>f|ge a>g|fd de|
fd dA|d/e/f/g/ a>f|ge e>d|^c/d/e/f/ ge|
de/d/ cA|GF/G/ A>B|cA GA/G/|FD D2||

